svg/fluentui-system-icons/ic_fluent_compose_28_filled.svg

<svg width="28" height="28" viewBox="0 0 28 28" fill="none" xmlns="http://www.w3.org/2000/svg">
<path d="M25.7071 3.70711C26.0976 3.31658 26.0976 2.68342 25.7071 2.29289C25.3166 1.90237 24.6834 1.90237 24.2929 2.29289L11.2929 15.2929L11 17L12.7071 16.7071L25.7071 3.70711ZM6.5 3C4.567 3 3 4.567 3 6.5V21.5C3 23.433 4.567 25 6.5 25H21.5C23.433 25 25 23.433 25 21.5V11.5C25 10.9477 24.5523 10.5 24 10.5C23.4477 10.5 23 10.9477 23 11.5V21.5C23 22.3284 22.3284 23 21.5 23H6.5C5.67157 23 5 22.3284 5 21.5V6.5C5 5.67157 5.67157 5 6.5 5H16.5C17.0523 5 17.5 4.55228 17.5 4C17.5 3.44772 17.0523 3 16.5 3H6.5Z" fill="#212121"/>
</svg>

<svg xmlns="http://www.w3.org/2000/svg" width="28" height="28"><path d="M25.707 3.707a1 1 0 0 0-1.414-1.414l-13 13L11 17l1.707-.293 13-13ZM6.5 3A3.5 3.5 0 0 0 3 6.5v15A3.5 3.5 0 0 0 6.5 25h15a3.5 3.5 0 0 0 3.5-3.5v-10a1 1 0 1 0-2 0v10a1.5 1.5 0 0 1-1.5 1.5h-15A1.5 1.5 0 0 1 5 21.5v-15A1.5 1.5 0 0 1 6.5 5h10a1 1 0 1 0 0-2h-10Z"/></svg>
